X:4624
T:Newcastle
C:          %Tune composer
N:          %Tune infos
Q:1/4=200     %Tempo
O:England
M:4/4     %Meter
L:1/8     %
K:G
"G"B2 d2 G2 A2 |"G"G3 A G2 D2 |"G"B2 d2 G2 d2 |"C"e2 g4 fe |"G"d2 B2 A2 G2 |"C"E2 e4 dc |"G"d2 B2 "D"A3 G |1G6 z2 :|2"G"G6 ef ::"G"gf ed g3 B |
"Am"A2 g4 A2 |"G"G3 A B2 F2 |"C"E2 e4 f2 |"G"gf ed g3 B |
"Am"A2 A2 c3 d |"C"e2 B2 "D"A3 G |1"G"G6 ef :|2"G"G6 z2 |]


